src/assets/icons/browse-toggle.svg

<?xml version="1.0" encoding="UTF-8"?>
<svg width="18px" height="18px" viewBox="0 0 18 18" version="1.1" xmlns="http://www.w3.org/2000/svg" xmlns:xlink="http://www.w3.org/1999/xlink">
    <!-- Generator: Sketch 52.5 (67469) - http://www.bohemiancoding.com/sketch -->
    <title>Group</title>
    <desc>Created with Sketch.</desc>
    <g id="Page-1" stroke="none" stroke-width="1" fill-rule="evenodd">
        <g id="compass">
            <g id="Group">
                <path d="M16.8043699,8.59 C16.5558492,4.62637857 13.3736903,1.44507575 9.41,1.19662547 L9.41,2.686 C9.41,2.962 9.186,3.186 8.91,3.186 C8.633,3.186 8.41,2.962 8.41,2.686 L8.41,1.19661878 C4.44547507,1.44501862 1.26408182,4.62634298 1.0156258,8.59 L2.486,8.59 C2.763,8.59 2.986,8.814 2.986,9.09 C2.986,9.367 2.763,9.59 2.486,9.59 L1.01561884,9.59 C1.26402237,13.554562 4.44543802,16.7359776 8.41,16.9843812 L8.41,15.488 C8.41,15.212 8.633,14.988 8.91,14.988 C9.186,14.988 9.41,15.212 9.41,15.488 L9.41,16.9843745 C13.3737274,16.7359205 16.5559086,13.5545264 16.8043769,9.59 L15.331,9.59 C15.054,9.59 14.831,9.367 14.831,9.09 C14.831,8.814 15.054,8.59 15.331,8.59 L16.8043699,8.59 Z M8.91,18 C3.997,18 0,14.003 0,9.09 C0,4.178 3.997,0.181 8.91,0.181 C13.823,0.181 17.82,4.178 17.82,9.09 C17.82,14.003 13.823,18 8.91,18 Z" id="Combined-Shape"></path>
                <path d="M7.724,7.926 L5.805,12.217 L10.096,10.298 L12.015,6.007 L7.724,7.926 Z M4.814,13.708 C4.684,13.708 4.556,13.657 4.46,13.562 C4.314,13.415 4.273,13.193 4.357,13.004 L6.889,7.344 C6.939,7.231 7.029,7.142 7.141,7.091 L12.802,4.56 C12.991,4.476 13.212,4.517 13.359,4.663 C13.506,4.81 13.547,5.032 13.462,5.221 L10.931,10.881 C10.88,10.993 10.791,11.083 10.678,11.133 L5.018,13.664 C4.953,13.693 4.883,13.708 4.814,13.708 Z"></path>
                <path d="M8.16,9.112 C8.16,9.526 8.496,9.862 8.91,9.862 C9.324,9.862 9.66,9.526 9.66,9.112 C9.66,8.698 9.324,8.362 8.91,8.362 C8.496,8.362 8.16,8.698 8.16,9.112"></path>
            </g>
        </g>
    </g>
</svg>

<svg width="18" height="18" xmlns="http://www.w3.org/2000/svg"><g fill-rule="evenodd"><path d="M16.804 8.59A7.922 7.922 0 009.41 1.197v1.489a.5.5 0 01-1 0v-1.49A7.921 7.921 0 001.016 8.59h1.47a.5.5 0 110 1h-1.47a7.921 7.921 0 007.394 7.394v-1.496a.5.5 0 111 0v1.496a7.922 7.922 0 007.394-7.394h-1.473a.499.499 0 110-1h1.473zM8.91 18C3.997 18 0 14.003 0 9.09 0 4.178 3.997.181 8.91.181s8.91 3.997 8.91 8.909c0 4.913-3.997 8.91-8.91 8.91z"/><path d="M7.724 7.926l-1.919 4.291 4.291-1.919 1.919-4.291-4.291 1.919zm-2.91 5.782a.504.504 0 01-.354-.146.503.503 0 01-.103-.558l2.532-5.66a.501.501 0 01.252-.253l5.661-2.531a.501.501 0 01.66.661l-2.531 5.66a.501.501 0 01-.253.252l-5.66 2.531a.503.503 0 01-.204.044z"/><path d="M8.16 9.112a.75.75 0 101.5 0 .75.75 0 00-1.5 0"/></g></svg>
